public/assets/social-media/discord.svg

<svg viewBox="0 0 25 25" fill="none" xmlns="http://www.w3.org/2000/svg">
<g clip-path="url(#clip0_103_30)">
<path d="M8.83398 11.1719C7.63086 11.1719 6.65234 12.2656 6.65234 13.6094C6.65234 14.9531 7.62891 16.0449 8.83398 16.0449C10.0391 16.0449 11.0137 14.9531 11.0137 13.6094C11.0137 12.2656 10.0352 11.1719 8.83398 11.1719ZM8.83398 15.2734C8.05273 15.2734 7.43359 14.5313 7.43359 13.6191C7.43359 12.707 8.06055 11.9629 8.83398 11.9629C9.60742 11.9629 10.2324 12.7051 10.2324 13.6191C10.2324 14.5332 9.60547 15.2637 8.83398 15.2637V15.2734Z" fill="black"/>
<path d="M23.7949 11.6367C23.2605 9.54481 22.5063 7.5153 21.5449 5.58203C21.5121 5.521 21.4644 5.46926 21.4062 5.43164C20.4623 4.86988 19.4661 4.40089 18.4316 4.03125C16.5137 3.33399 15.6074 3.32032 15.5703 3.32032C15.4755 3.31938 15.3836 3.35295 15.3118 3.41476C15.2399 3.47656 15.1929 3.5624 15.1797 3.65625L15.0625 4.47071C13.3557 4.30144 11.6364 4.30144 9.92967 4.47071L9.81249 3.65625C9.79922 3.5624 9.75228 3.47656 9.68041 3.41476C9.60854 3.35295 9.51665 3.31938 9.42186 3.32032C9.38475 3.32032 8.4785 3.32032 6.56053 4.02539C5.52857 4.39737 4.53501 4.86832 3.59374 5.43164C3.53555 5.46926 3.48785 5.521 3.45506 5.58203C2.49362 7.51526 1.73942 9.54479 1.20506 11.6367C0.195299 15.7148 -1.34084e-05 17.7559 -1.34084e-05 17.8398C-0.0047643 17.8926 0.00127013 17.9458 0.0177228 17.9962C0.0341754 18.0465 0.0607023 18.093 0.0956897 18.1328C1.09971 19.1946 2.30909 20.0411 3.65038 20.6211C4.88526 21.1463 6.18542 21.5024 7.51561 21.6797C7.59027 21.6866 7.66533 21.6718 7.73182 21.6372C7.79832 21.6025 7.85344 21.5495 7.89061 21.4844L8.9453 19.6777C10.1195 19.8777 11.3089 19.9751 12.5 19.9688C13.6912 19.9738 14.8806 19.8751 16.0547 19.6738L17.1094 21.4844C17.1434 21.5434 17.1924 21.5925 17.2513 21.6268C17.3103 21.661 17.3771 21.6793 17.4453 21.6797H17.4844C18.8135 21.5047 20.113 21.1513 21.3476 20.6289C22.6889 20.049 23.8983 19.2024 24.9023 18.1406C24.9373 18.1008 24.9638 18.0543 24.9803 18.004C24.9968 17.9536 25.0028 17.9004 24.998 17.8477C25 17.7559 24.8144 15.7148 23.7949 11.6367ZM21.0488 19.9004C19.9584 20.3533 18.8184 20.6759 17.6523 20.8613L16.8555 19.4941C17.7695 19.252 19.6719 18.6231 21.1191 17.3066C21.1576 17.2721 21.1889 17.2304 21.2112 17.1838C21.2336 17.1372 21.2465 17.0867 21.2493 17.0351C21.2522 16.9835 21.2448 16.9318 21.2276 16.8831C21.2105 16.8343 21.1839 16.7895 21.1494 16.751C21.1149 16.7125 21.0732 16.6812 21.0266 16.6589C20.98 16.6365 20.9294 16.6236 20.8778 16.6208C20.8262 16.618 20.7746 16.6253 20.7258 16.6425C20.6771 16.6596 20.6322 16.6862 20.5937 16.7207C18.8359 18.3281 16.207 18.8379 16.1797 18.8438H16.168C14.9594 19.0777 13.7309 19.1929 12.5 19.1875C11.2694 19.1967 10.0409 19.0855 8.83202 18.8555H8.8203C8.79296 18.8555 6.17381 18.3398 4.40624 16.7324C4.32854 16.6628 4.22634 16.6268 4.12213 16.6325C4.01793 16.6382 3.92024 16.685 3.85057 16.7627C3.7809 16.8404 3.74495 16.9426 3.75063 17.0468C3.7563 17.151 3.80315 17.2487 3.88085 17.3184C5.32811 18.6348 7.23046 19.2715 8.14452 19.5059L7.34764 20.8731C6.18132 20.6888 5.04112 20.3662 3.95116 19.9121C2.77159 19.392 1.70128 18.653 0.796862 17.7344C0.861315 17.166 1.12499 15.1816 1.96874 11.8281C2.48229 9.83135 3.19688 7.89175 4.10155 6.03907C4.97401 5.53543 5.88897 5.10931 6.83592 4.76563C7.56764 4.48447 8.32517 4.27578 9.09764 4.14258L9.166 4.60938C8.38475 4.80469 6.46092 5.36329 4.93749 6.47071C4.89606 6.50097 4.86101 6.5391 4.83432 6.58291C4.80763 6.62673 4.78984 6.67537 4.78195 6.72606C4.76601 6.82844 4.7914 6.93295 4.85253 7.01661C4.91365 7.10026 5.0055 7.15621 5.10788 7.17214C5.15857 7.18003 5.21032 7.17786 5.26017 7.16575C5.31002 7.15364 5.357 7.13183 5.39842 7.10157C7.12108 5.84961 9.49999 5.33204 9.66796 5.29493C10.6077 5.18233 11.5535 5.12754 12.5 5.13086C13.4471 5.12709 14.3936 5.18188 15.334 5.29493C15.5117 5.33204 17.873 5.84766 19.6035 7.10157C19.6872 7.16269 19.7917 7.18808 19.894 7.17214C19.9964 7.15621 20.0883 7.10026 20.1494 7.01661C20.2105 6.93295 20.2359 6.82844 20.22 6.72606C20.204 6.62368 20.1481 6.53183 20.0644 6.47071C18.541 5.36329 16.625 4.80664 15.8359 4.60938L15.9043 4.14258C16.676 4.2764 17.4328 4.48506 18.164 4.76563C19.111 5.10931 20.026 5.53543 20.8984 6.03907C21.8085 7.89115 22.5283 9.83077 23.0469 11.8281C23.8848 15.1816 24.1484 17.166 24.2187 17.7344C23.3087 18.6505 22.233 19.3855 21.0488 19.9004V19.9004Z" fill="black"/>
<path d="M16.166 11.1719C14.9648 11.1719 13.9863 12.2656 13.9863 13.6094C13.9863 14.9531 14.9629 16.0449 16.166 16.0449C17.3691 16.0449 18.3477 14.9531 18.3477 13.6094C18.3477 12.2656 17.3691 11.1719 16.166 11.1719ZM16.166 15.2734C15.3848 15.2734 14.7676 14.5313 14.7676 13.6191C14.7676 12.707 15.3945 11.9629 16.166 11.9629C16.9375 11.9629 17.5664 12.7051 17.5664 13.6191C17.5664 14.5332 16.9395 15.2637 16.166 15.2637V15.2734Z" fill="black"/>
</g>
<defs>
<clipPath id="clip0_103_30">
<rect width="25" height="25" fill="white"/>
</clipPath>
</defs>
</svg>

<svg xmlns="http://www.w3.org/2000/svg" viewBox="0 0 25 25" fill="none" xmlns:v="https://vecta.io/nano"><g clip-path="url(#A)" fill="#000"><path d="M8.834 11.172c-1.203 0-2.182 1.094-2.182 2.438s.977 2.435 2.182 2.435 2.18-1.092 2.18-2.435-.979-2.437-2.18-2.437zm0 4.102c-.781 0-1.4-.742-1.4-1.654s.627-1.656 1.4-1.656 1.398.742 1.398 1.656-.627 1.645-1.398 1.645v.01zm14.961-3.637c-.534-2.092-1.289-4.121-2.25-6.055a.41.41 0 0 0-.139-.15 16.93 16.93 0 0 0-2.975-1.4c-1.918-.697-2.824-.711-2.861-.711a.39.39 0 0 0-.391.336l-.117.814c-1.707-.169-3.426-.169-5.133 0l-.117-.814a.39.39 0 0 0-.391-.336c-.037 0-.943 0-2.861.705a17.01 17.01 0 0 0-2.967 1.406.41.41 0 0 0-.139.15 30.61 30.61 0 0 0-2.25 6.055C.195 15.715 0 17.756 0 17.84a.39.39 0 0 0 .096.293 10.78 10.78 0 0 0 3.555 2.488 14.91 14.91 0 0 0 3.865 1.059.39.39 0 0 0 .375-.195l1.055-1.807c1.174.2 2.364.297 3.555.291a20.56 20.56 0 0 0 3.555-.295l1.055 1.811a.39.39 0 0 0 .336.195h.039a14.91 14.91 0 0 0 3.863-1.051 10.78 10.78 0 0 0 3.555-2.488.39.39 0 0 0 .096-.293c.002-.092-.184-2.133-1.203-6.211zM21.049 19.9a14.99 14.99 0 0 1-3.396.961l-.797-1.367c.914-.242 2.816-.871 4.264-2.187.038-.035.07-.076.092-.123s.035-.097.038-.149a.39.39 0 0 0-.1-.284c-.034-.038-.076-.07-.123-.092s-.097-.035-.149-.038-.103.005-.152.022a.39.39 0 0 0-.132.078c-1.758 1.607-4.387 2.117-4.414 2.123h-.012a18.87 18.87 0 0 1-3.668.344 18.87 18.87 0 0 1-3.668-.332H8.82c-.027 0-2.646-.516-4.414-2.123a.39.39 0 0 0-.284-.1c-.104.006-.202.052-.272.13a.39.39 0 0 0-.1.284.4.4 0 0 0 .13.272c1.447 1.316 3.35 1.953 4.264 2.188l-.797 1.367a14.84 14.84 0 0 1-3.396-.961c-1.18-.52-2.25-1.259-3.154-2.178.064-.568.328-2.553 1.172-5.906.514-1.997 1.228-3.936 2.133-5.789a17.22 17.22 0 0 1 2.734-1.273 11.98 11.98 0 0 1 2.262-.623l.068.467c-.781.195-2.705.754-4.229 1.861a.39.39 0 0 0 .17.701.39.39 0 0 0 .291-.071C7.121 5.85 9.5 5.332 9.668 5.295c.94-.113 1.886-.167 2.832-.164a22.98 22.98 0 0 1 2.834.164c.178.037 2.539.553 4.27 1.807a.39.39 0 1 0 .461-.631c-1.523-1.107-3.439-1.664-4.228-1.861l.068-.467a12.06 12.06 0 0 1 2.26.623 17.28 17.28 0 0 1 2.734 1.273c.91 1.852 1.63 3.792 2.149 5.789l1.172 5.906a10.2 10.2 0 0 1-3.17 2.166h0zm-4.883-8.728c-1.201 0-2.18 1.094-2.18 2.438s.977 2.435 2.18 2.435 2.182-1.092 2.182-2.435-.979-2.437-2.182-2.437zm0 4.102c-.781 0-1.398-.742-1.398-1.654s.627-1.656 1.398-1.656 1.4.742 1.4 1.656-.627 1.645-1.4 1.645v.01z"/></g><defs><clipPath id="A"><path fill="#fff" d="M0 0h25v25H0z"/></clipPath></defs></svg>
